svg/u1f469_1f3fe.svg

<svg viewBox="0 0 128 128" xmlns="http://www.w3.org/2000/svg">
  <path id="hair_1_" d="M64.74,4.12c-53.26,0-52.84,49.25-52.84,50.03c0,21.44,1.11,48.82,5.71,69.85h1.5h1.6 h86.59h1.6h1.5c4.6-21.04,5.7-48.41,5.7-69.84C116.09,53.37,118,4.12,64.74,4.12z" fill="#3C2C23"/>
  <path id="head" d="M64,19.6c-22.34,0-43.03,16.61-43.03,51.84c0,28.29,17.52,45.03,32.77,50.43 c3.64,1.29,7.15,1.94,10.26,1.94c3.09,0,6.58-0.64,10.2-1.91c15.27-5.37,32.83-22.12,32.83-50.45C107.03,36.21,86.34,19.6,64,19.6z" fill="#A56C43"/>
  <g id="hairGroup">
    <path id="hair" d="M18.95,120.91c0.6,1.23,1.25,2.24,1.91,3.09h7.12c-0.71-9.76-2.38-33.66-2.62-46.37 c-0.07-3.79-1.22-17.83,6.7-19.6C61.1,51.5,77.53,36.1,77.53,36.1c4.27,9.33,17.63,18.43,22.43,21.89 c3.94,2.84,3.39,14.54,3.31,19.52L99.64,124h7.64c0.68-0.85,1.35-1.86,1.96-3.09c3.85-7.82,3.97-66.75,3.97-66.75 s1.32-46.2-49.11-46.2s-49.31,46.2-49.31,46.2S15.22,113.23,18.95,120.91z" fill="#3C2C23"/>
    <radialGradient id="hairHighlights_2_" cx="64.4336" cy="46.4809" gradientTransform="matrix(1 0 0 -1.2135 0 137.9276)" gradientUnits="userSpaceOnUse" r="64.666">
      <stop offset="0.7945" stop-color="#554138" stop-opacity="0"/>
      <stop offset="1" stop-color="#554138"/>
    </radialGradient>
    <path id="hairHighlights" d="M64.74,4.12c-53.26,0-52.84,49.25-52.84,50.03 c0,10.08,0.24,21.46,0.98,32.89l8.73-0.02c-0.07-3.79,2.58-27.23,10.5-29.01c29.04-6.53,45.47-21.93,45.47-21.93 c4.27,9.33,17.63,18.43,22.43,21.89c3.94,2.84,5.55,24.09,5.47,29.07h9.61c0.01-0.07,0.02-0.14,0.03-0.2 c0.72-11.36,0.97-22.68,0.97-32.69C116.09,53.37,118,4.12,64.74,4.12z" fill="url(#hairHighlights_2_)"/>
  </g>
  <path id="nose" d="M68.95,87.16c-0.14-0.06-0.27-0.09-0.41-0.11h-9.08c-0.14,0.02-0.28,0.05-0.41,0.11 c-0.82,0.33-1.28,1.19-0.89,2.09c0.39,0.91,2.2,3.46,5.84,3.46s5.45-2.55,5.84-3.46S69.77,87.49,68.95,87.16z" fill="#875334"/>
  <g id="eyes">
    <ellipse cx="42.9" cy="75.23" fill="#42312C" rx="6.32" ry="6.55"/>
    <ellipse cx="85.1" cy="75.23" fill="#42312C" rx="6.32" ry="6.55"/>
  </g>
  <g id="eyebrows">
    <path d="M52.29,63.47c-1.2-1.59-3.99-3.91-9.39-3.91s-8.19,2.32-9.39,3.91c-0.53,0.71-0.4,1.52-0.03,2.01 c0.34,0.46,1.35,0.88,2.47,0.5s3.3-1.51,6.95-1.53c3.65,0.03,5.84,1.15,6.95,1.53c1.12,0.38,2.13-0.04,2.47-0.5 C52.69,64.99,52.82,64.18,52.29,63.47z" fill="#42312C"/>
    <path d="M94.5,63.47c-1.2-1.59-3.99-3.91-9.39-3.91s-8.19,2.32-9.39,3.91c-0.53,0.71-0.4,1.52-0.03,2.01 c0.34,0.46,1.35,0.88,2.47,0.5s3.3-1.51,6.95-1.53c3.65,0.03,5.84,1.15,6.95,1.53c1.12,0.38,2.13-0.04,2.47-0.5 C94.89,64.99,95.03,64.18,94.5,63.47z" fill="#42312C"/>
  </g>
  <path id="mouth" d="M74.8,97.66c-4.09,2.43-17.49,2.43-21.58,0c-2.35-1.4-4.75,0.74-3.77,2.87 c0.96,2.1,8.27,6.96,14.59,6.96s13.54-4.86,14.5-6.96C79.52,98.39,77.15,96.26,74.8,97.66z" fill="#473530"/>
  <radialGradient id="hairHighlights_3_" cx="64.0008" cy="51.4368" gradientTransform="matrix(1 0 0 -1.1901 0 137.7753)" gradientUnits="userSpaceOnUse" r="61.8331">
    <stop offset="0.7936" stop-color="#554138" stop-opacity="0"/>
    <stop offset="1" stop-color="#554138"/>
  </radialGradient>
  <path id="hairHighlights_1_" d="M110.55,123.91c4.53-21.01,5.62-48.2,5.62-69.52 c0-0.78,1.92-50.11-51.43-50.11c-53.35,0-52.92,49.33-52.92,50.11c0,21.32,1.09,48.51,5.62,69.52H110.55z" fill="url(#hairHighlights_3_)"/>
</svg>

<svg viewBox="0 0 128 128" xmlns="http://www.w3.org/2000/svg">
  <defs>
    <radialGradient id="hairHighlights_3_" cx="64.0008" cy="-64.331035" gradientTransform="matrix(1 0 0 -1.1901 0 0)" gradientUnits="userSpaceOnUse" r="61.8331">
      <stop offset="0.7936" stop-color="#554138" stop-opacity="0"/>
      <stop offset="1" stop-color="#554138"/>
    </radialGradient>
    <radialGradient id="hairHighlights_2_" cx="64.4336" cy="-67.180081" gradientTransform="matrix(1 0 0 -1.2135 0 0)" gradientUnits="userSpaceOnUse" r="64.666">
      <stop offset="0.7945" stop-color="#554138" stop-opacity="0"/>
      <stop offset="1" stop-color="#554138"/>
    </radialGradient>
  </defs>
  <path id="hair_1_" d="M64.74,4.12 C11.48,4.12 11.9,53.37 11.9,54.15 C11.9,75.59 13.01,102.97 17.61,124 L19.11,124 L20.71,124 L107.3,124 L108.9,124 L110.4,124 C115,102.96 116.1,75.59 116.1,54.16 C116.09,53.37 118,4.12 64.74,4.12 Z" fill="#3C2C23"/>
  <path id="head" d="M64,19.6 C41.66,19.6 20.97,36.21 20.97,71.44 C20.97,99.73 38.49,116.47 53.74,121.87 C57.38,123.16 60.89,123.81 64,123.81 C67.09,123.81 70.58,123.17 74.2,121.9 C89.47,116.53 107.03,99.78 107.03,71.45 C107.03,36.21 86.34,19.6 64,19.6 Z" fill="#A56C43"/>
  <path id="hair" d="M18.95,120.91 C19.55,122.14 20.2,123.15 20.86,124 L27.98,124 C27.27,114.24 25.6,90.34 25.36,77.63 C25.29,73.84 24.14,59.8 32.06,58.03 C61.1,51.5 77.53,36.1 77.53,36.1 C81.8,45.43 95.16,54.53 99.96,57.99 C103.9,60.83 103.35,72.53 103.27,77.51 L99.64,124 L107.28,124 C107.96,123.15 108.63,122.14 109.24,120.91 C113.09,113.09 113.21,54.16 113.21,54.16 C113.21,54.16 114.53,7.96 64.1,7.96 C13.67,7.96 14.79,54.16 14.79,54.16 C14.79,54.16 15.22,113.23 18.95,120.91 Z" fill="#3C2C23"/>
  <path id="hairHighlights" d="M64.74,4.12 C11.48,4.12 11.9,53.37 11.9,54.15 C11.9,64.23 12.14,75.61 12.88,87.04 L21.61,87.02 C21.54,83.23 24.19,59.79 32.11,58.01 C61.15,51.48 77.58,36.08 77.58,36.08 C81.85,45.41 95.21,54.51 100.01,57.97 C103.95,60.81 105.56,82.06 105.48,87.04 L115.09,87.04 C115.1,86.97 115.11,86.9 115.12,86.84 C115.84,75.48 116.09,64.16 116.09,54.15 C116.09,53.37 118,4.12 64.74,4.12 Z" fill="url(#hairHighlights_2_)"/>
  <path id="nose" d="M68.95,87.16 C68.81,87.1 68.68,87.07 68.54,87.05 L59.46,87.05 C59.32,87.07 59.18,87.1 59.05,87.16 C58.23,87.49 57.77,88.35 58.16,89.25 C58.55,90.16 60.36,92.71 64,92.71 C67.64,92.71 69.45,90.16 69.84,89.25 C70.23,88.34 69.77,87.49 68.95,87.16 Z" fill="#875334"/>
  <path d="M49.22,75.23 A6.32 6.55 0 1 1 36.58,75.23 A6.32 6.55 0 1 1 49.22,75.23 Z" fill="#42312C"/>
  <path d="M91.42,75.23 A6.32 6.55 0 1 1 78.78,75.23 A6.32 6.55 0 1 1 91.42,75.23 Z" fill="#42312C"/>
  <path d="M52.29,63.47 C51.09,61.88 48.3,59.56 42.9,59.56 C37.5,59.56 34.71,61.88 33.51,63.47 C32.98,64.18 33.11,64.99 33.48,65.48 C33.82,65.94 34.83,66.36 35.95,65.98 C37.07,65.6 39.25,64.47 42.9,64.45 C46.55,64.48 48.74,65.6 49.85,65.98 C50.97,66.36 51.98,65.94 52.32,65.48 C52.69,64.99 52.82,64.18 52.29,63.47 Z" fill="#42312C"/>
  <path d="M94.5,63.47 C93.3,61.88 90.51,59.56 85.11,59.56 C79.71,59.56 76.92,61.88 75.72,63.47 C75.19,64.18 75.32,64.99 75.69,65.48 C76.03,65.94 77.04,66.36 78.16,65.98 C79.28,65.6 81.46,64.47 85.11,64.45 C88.76,64.48 90.95,65.6 92.06,65.98 C93.18,66.36 94.19,65.94 94.53,65.48 C94.89,64.99 95.03,64.18 94.5,63.47 Z" fill="#42312C"/>
  <path id="mouth" d="M74.8,97.66 C70.71,100.09 57.31,100.09 53.22,97.66 C50.87,96.26 48.47,98.4 49.45,100.53 C50.41,102.63 57.72,107.49 64.04,107.49 C70.36,107.49 77.58,102.63 78.54,100.53 C79.52,98.39 77.15,96.26 74.8,97.66 Z" fill="#473530"/>
  <path id="hairHighlights_1_" d="M110.55,123.91 C115.08,102.9 116.17,75.71 116.17,54.39 C116.17,53.61 118.09,4.28 64.74,4.28 C11.39,4.28 11.82,53.61 11.82,54.39 C11.82,75.71 12.91,102.9 17.44,123.91 L110.55,123.91 Z" fill="url(#hairHighlights_3_)"/>
</svg>
